X:46
M:6/8
L:1/8
Q:3/8=70
K:D
|:c|d>ed a2b|d>ed dBA|d>ed a2b|aff f2a|f>^ef b2d'|a>ba afd|e>de f2e|dBB

